SVG_Azure_All/Network Manager.svg

<?xml version="1.0" encoding="UTF-8" standalone="no"?>
<!-- Generated by Microsoft Visio, SVG Export Network Manager.svg Page-1 -->

<svg
   xmlns:dc="http://purl.org/dc/elements/1.1/"
   xmlns:cc="http://creativecommons.org/ns#"
   xmlns:rdf="http://www.w3.org/1999/02/22-rdf-syntax-ns#"
   xmlns:svg="http://www.w3.org/2000/svg"
   xmlns="http://www.w3.org/2000/svg"
   xmlns:sodipodi="http://sodipodi.sourceforge.net/DTD/sodipodi-0.dtd"
   xmlns:inkscape="http://www.inkscape.org/namespaces/inkscape"
   width="0.7480765in"
   height="0.78739953in"
   viewBox="0 0 53.861261 56.693077"
   xml:space="preserve"
   class="st5"
   version="1.1"
   id="svg60"
   sodipodi:docname="Network Manager.svg"
   style="font-size:12px;overflow:visible;color-interpolation-filters:sRGB;fill:none;fill-rule:evenodd;stroke-linecap:square;stroke-miterlimit:3"
   inkscape:version="0.92.5 (2060ec1f9f, 2020-04-08)"><metadata
   id="metadata64"><rdf:RDF><cc:Work
       rdf:about=""><dc:format>image/svg+xml</dc:format><dc:type
         rdf:resource="http://purl.org/dc/dcmitype/StillImage" /></cc:Work></rdf:RDF></metadata><sodipodi:namedview
   pagecolor="#ffffff"
   bordercolor="#666666"
   borderopacity="1"
   objecttolerance="10"
   gridtolerance="10"
   guidetolerance="10"
   inkscape:pageopacity="0"
   inkscape:pageshadow="2"
   inkscape:window-width="640"
   inkscape:window-height="480"
   id="namedview62"
   showgrid="false"
   inkscape:zoom="1.4193119"
   inkscape:cx="35.909543"
   inkscape:cy="37.786193"
   inkscape:window-x="0"
   inkscape:window-y="0"
   inkscape:window-maximized="0"
   inkscape:current-layer="svg60" />
	<style
   type="text/css"
   id="style2">
	<![CDATA[
		.st1 {fill:#76bc2d;stroke:none;stroke-linecap:butt;stroke-width:34}
		.st2 {fill:#50e6ff;stroke:none;stroke-linecap:butt;stroke-width:34}
		.st3 {fill:#1490df;stroke:none;stroke-linecap:butt;stroke-width:34}
		.st4 {fill:url(#grad0-20);stroke:none;stroke-linecap:butt;stroke-width:34}
		.st5 {fill:none;fill-rule:evenodd;font-size:12px;overflow:visible;stroke-linecap:square;stroke-miterlimit:3}
	]]>
	</style>

	<defs
   id="Patterns_And_Gradients">
		<linearGradient
   id="grad0-20"
   x1="-2.6809182e-15"
   y1="89.68855"
   x2="34.259356"
   y2="89.68855"
   gradientTransform="scale(0.99388907,1.0061485)"
   gradientUnits="userSpaceOnUse">
			<stop
   offset="0"
   stop-color="#5ea0ef"
   stop-opacity="1"
   id="stop4" />
			<stop
   offset="1"
   stop-color="#0078d4"
   stop-opacity="1"
   id="stop6" />
		</linearGradient>
	</defs>
	<g
   id="g58"
   transform="translate(-33.997307,-34.001224)">
		<title
   id="title10">Page-1</title>
		<g
   id="group2858-1"
   transform="translate(34,-34.0157)">
			<title
   id="title12">Network Manager</title>
			<g
   id="group2859-2">
				<title
   id="title14">Sheet.2859</title>
				<g
   id="shape2860-3"
   transform="translate(28.7057,-40.5094)">
					<title
   id="title16">Sheet.2860</title>
					<ellipse
   cx="2.87323"
   cy="121.839"
   rx="2.87323"
   ry="2.8699"
   class="st1"
   id="ellipse18"
   style="fill:#76bc2d;stroke:none;stroke-width:34;stroke-linecap:butt" />
				</g>
				<g
   id="shape2861-5"
   transform="translate(19.5341,-40.4842)">
					<title
   id="title21">Sheet.2861</title>
					<ellipse
   cx="2.87323"
   cy="121.839"
   rx="2.87323"
   ry="2.8699"
   class="st1"
   id="ellipse23"
   style="fill:#76bc2d;stroke:none;stroke-width:34;stroke-linecap:butt" />
				</g>
				<g
   id="shape2862-7"
   transform="translate(10.3656,-40.4842)">
					<title
   id="title26">Sheet.2862</title>
					<ellipse
   cx="2.87323"
   cy="121.839"
   rx="2.87323"
   ry="2.8699"
   class="st1"
   id="ellipse28"
   style="fill:#76bc2d;stroke:none;stroke-width:34;stroke-linecap:butt" />
				</g>
				<g
   id="shape2863-9"
   transform="translate(0.0147425,-30.0248)">
					<title
   id="title31">Sheet.2863</title>
					<path
   d="m 15.31,122.86 -1.64,1.63 a 0.741173,0.740315 0 0 1 -1.05026,0 L 0.43,112.37 a 1.4855,1.48378 0 0 1 0,-2.09 l 1.65,-1.65 13.24,13.18 a 0.74748,0.746616 0 0 1 0,1.05219 z"
   class="st2"
   id="path33"
   inkscape:connector-curvature="0"
   style="fill:#50e6ff;stroke:none;stroke-width:34;stroke-linecap:butt" />
				</g>
				<g
   id="shape2864-11"
   transform="translate(0,-40.7394)">
					<title
   id="title36">Sheet.2864</title>
					<path
   d="m 13.43,109 1.65,1.63 a 0.741173,0.740315 0 0 1 0,1.04904 L 2.08,124.71 0.43,123.07 a 1.49181,1.49008 0 0 1 0,-2.1 L 12.38,109 a 0.741173,0.740315 0 0 1 1.05026,0 z"
   class="st3"
   id="path38"
   inkscape:connector-curvature="0"
   style="fill:#1490df;stroke:none;stroke-width:34;stroke-linecap:butt" />
				</g>
				<g
   id="shape2865-13"
   transform="translate(33.0424,-36.6755)">
					<title
   id="title41">Sheet.2865</title>
					<path
   d="m 1.75,124.7 h 3.66 l 5.71,-5.7 a 1.48865,1.48693 -180 0 0 0,-2.09 L 9.48,115.26 0,124.71 Z"
   class="st2"
   id="path43"
   inkscape:connector-curvature="0"
   style="fill:#50e6ff;stroke:none;stroke-width:34;stroke-linecap:butt" />
				</g>
				<g
   id="shape2866-15"
   transform="translate(29.3012,-40.7552)">
					<title
   id="title46">Sheet.2866</title>
					<path
   d="m 14.86,123.07 -1.65,1.64 -13,-13.02 a 0.741173,0.740315 0 0 1 0,-1.03644 L 1.88,108.99 a 0.741173,0.740315 0 0 1 1.05026,0 L 14.88,120.96 a 1.48865,1.48693 0 0 1 0,2.1 z"
   class="st3"
   id="path48"
   inkscape:connector-curvature="0"
   style="fill:#1490df;stroke:none;stroke-width:34;stroke-linecap:butt" />
				</g>
				<g
   id="shape2867-17"
   transform="translate(19.8085)">
					<title
   id="title51">Sheet.2867</title>
					<path
   d="m 34.05,109.35 v -3.86 h -0.51 l -4.2,-1.3 -0.96,-2.89 2.1,-4.53 -2.73,-2.73 h -0.51 l -3.91,1.99 -2.62,-1.08 -1.7,-4.71 h -4.03 v 0.57 l -1.36,4.14 -2.67,1.08 -4.41,-2.1 -2.73,2.72 0.29,0.51 1.57,4.2 -0.9,2.83 -4.77,1.53 v 4.14 h 0.57 l 4.14,1.36 0.96,2.55 -2.1,4.53 2.84,2.89 0.57,-0.28 3.86,-1.98 2.67,1.08 1.7,4.7 h 3.86 v -0.57 l 1.36,-4.13 2.67,-1.08 4.48,2.09 2.73,-2.72 -0.29,-0.51 -1.64,-4.09 1.07,-2.66 z m -16.91,5.67 h -0.12 a 7.4338,7.42521 0 1 1 0.12,0 z"
   class="st4"
   id="path53"
   inkscape:connector-curvature="0"
   style="fill:url(#grad0-20);stroke:none;stroke-width:34;stroke-linecap:butt" />
				</g>
			</g>
		</g>
	</g>
</svg>

<?xml version="1.0" encoding="UTF-8" standalone="no"?>
<!DOCTYPE svg PUBLIC "-//W3C//DTD SVG 1.1//EN" "http://www.w3.org/Graphics/SVG/1.1/DTD/svg11.dtd">
<!-- Generated by Microsoft Visio, SVG Export Network Manager.svg Page-1 -->
<svg xmlns="http://www.w3.org/2000/svg" xmlns:xlink="http://www.w3.org/1999/xlink" xmlns:ev="http://www.w3.org/2001/xml-events"
		width="1.69248in" height="1.73206in" viewBox="0 0 121.858 124.709" xml:space="preserve" color-interpolation-filters="sRGB"
		class="st5">
	<style type="text/css">
	<![CDATA[
		.st1 {fill:#76bc2d;stroke:none;stroke-linecap:butt;stroke-width:34}
		.st2 {fill:#50e6ff;stroke:none;stroke-linecap:butt;stroke-width:34}
		.st3 {fill:#1490df;stroke:none;stroke-linecap:butt;stroke-width:34}
		.st4 {fill:url(#grad0-20);stroke:none;stroke-linecap:butt;stroke-width:34}
		.st5 {fill:none;fill-rule:evenodd;font-size:12px;overflow:visible;stroke-linecap:square;stroke-miterlimit:3}
	]]>
	</style>

	<defs id="Patterns_And_Gradients">
		<linearGradient id="grad0-20" x1="0" y1="0" x2="1" y2="0" gradientTransform="rotate(90 0.5 0.5)">
			<stop offset="0" stop-color="#5ea0ef" stop-opacity="1"/>
			<stop offset="1" stop-color="#0078d4" stop-opacity="1"/>
		</linearGradient>
	</defs>
	<g>
		<title>Page-1</title>
		<g id="group2832-1" transform="translate(34,-34.0157)">
			<title>Network Manager</title>
			<g id="group2833-2">
				<title>Sheet.2833</title>
				<g id="shape2834-3" transform="translate(28.7057,-40.5094)">
					<title>Sheet.2834</title>
					<ellipse cx="2.87323" cy="121.839" rx="2.87323" ry="2.8699" class="st1"/>
				</g>
				<g id="shape2835-5" transform="translate(19.5341,-40.4842)">
					<title>Sheet.2835</title>
					<ellipse cx="2.87323" cy="121.839" rx="2.87323" ry="2.8699" class="st1"/>
				</g>
				<g id="shape2836-7" transform="translate(10.3656,-40.4842)">
					<title>Sheet.2836</title>
					<ellipse cx="2.87323" cy="121.839" rx="2.87323" ry="2.8699" class="st1"/>
				</g>
				<g id="shape2837-9" transform="translate(0.0147425,-30.0248)">
					<title>Sheet.2837</title>
					<path d="M15.31 122.86 L13.67 124.49 a0.741173 0.740315 0 0 1 -1.05026 0 L0.43 112.37 A1.4855 1.48378 0 0 1 0.43
								 110.28 L2.08 108.63 L15.32 121.81 a0.74748 0.746616 0 0 1 0 1.05219 L15.31 122.86 Z" class="st2"/>
				</g>
				<g id="shape2838-11" transform="translate(0,-40.7394)">
					<title>Sheet.2838</title>
					<path d="M13.43 109 L15.08 110.63 a0.741173 0.740315 0 0 1 -2.66454E-14 1.04904 L2.08 124.71 L0.43 123.07 A1.49181
								 1.49008 0 0 1 0.43 120.97 L12.38 109 a0.741173 0.740315 0 0 1 1.05026 2.84217E-14 Z" class="st3"/>
				</g>
				<g id="shape2839-13" transform="translate(33.0424,-36.6755)">
					<title>Sheet.2839</title>
					<path d="M1.75 124.7 L5.41 124.7 L11.12 119 A1.48865 1.48693 -180 0 0 11.12 116.91 L9.48 115.26 L0 124.71 L1.75
								 124.7 Z" class="st2"/>
				</g>
				<g id="shape2840-15" transform="translate(29.3012,-40.7552)">
					<title>Sheet.2840</title>
					<path d="M14.86 123.07 L13.21 124.71 L0.21 111.69 a0.741173 0.740315 0 0 1 -2.22045E-15 -1.03644 L1.88 108.99
								 a0.741173 0.740315 0 0 1 1.05026 0 L14.88 120.96 A1.48865 1.48693 0 0 1 14.88 123.06 L14.86 123.07
								 Z" class="st3"/>
				</g>
				<g id="shape2841-17" transform="translate(19.8085,2.98428E-13)">
					<title>Sheet.2841</title>
					<path d="M34.05 109.35 L34.05 105.49 L33.54 105.49 L29.34 104.19 L28.38 101.3 L30.48 96.77 L27.75 94.04 L27.24
								 94.04 L23.33 96.03 L20.71 94.95 L19.01 90.24 L14.98 90.24 L14.98 90.81 L13.62 94.95 L10.95 96.03
								 L6.54 93.93 L3.81 96.65 L4.1 97.16 L5.67 101.36 L4.77 104.19 L0 105.72 L0 109.86 L0.57 109.86 L4.71
								 111.22 L5.67 113.77 L3.57 118.3 L6.41 121.19 L6.98 120.91 L10.84 118.93 L13.51 120.01 L15.21 124.71
								 L19.07 124.71 L19.07 124.14 L20.43 120.01 L23.1 118.93 L27.58 121.02 L30.31 118.3 L30.02 117.79
								 L28.38 113.7 L29.45 111.04 L34.05 109.35 ZM17.14 115.02 L17.02 115.02 A7.4338 7.42521 0 1 1 17.14
								 115.02 Z" class="st4"/>
				</g>
			</g>
		</g>
	</g>
</svg>
